X:1
T:My Wife's a Wanton Wee Thing
M:6/8
L:1/8
K:C
e/2-d/2| c2 GA-c G| c3 G2 A|_B-c BF-D F| _B3 D2e/2-d/2| c2 GA/2-B/2 cG|\
 c3 G2 F| ECE D3/2 B,/2 D| C3- C2E/2-F/2| GAG ECE| G3 E2 E| FGF D_B,D|\
 F3 D2E/2-F/2| GcG ECE| G3 G2 f| ece dBd| c3- c2||

